assets/img/components/fileinput-header.svg

<svg width="575" height="145" viewBox="0 0 575 145" fill="none" xmlns="http://www.w3.org/2000/svg">
<path d="M433 145C433 64.9792 368.094 0.109528 288.028 0.109528L288 0V145L433 145Z" fill="#286AD8"/>
<path d="M182.424 145C160.651 145 143 127.148 143 105.125V0H288V145H182.424Z" fill="#286AD8"/>
<path d="M430 145V-0.000152588L502.335 -0.000152588C542.467 -0.000152588 575 32.4592 575 72.4999C575 112.541 542.467 145 502.335 145L430 145Z" fill="#286AD8"/>
<path d="M105.125 145H0C0 64.9187 64.9187 0 145 0V105.125C145 127.147 127.147 145 105.125 145Z" fill="#286AD8"/>
<path d="M213.268 74.9681C213.268 73.6676 214.322 72.6133 215.623 72.6133H276.064C277.364 72.6133 278.418 73.6676 278.418 74.9681V89.5124C278.418 90.8129 277.364 91.8672 276.064 91.8672H215.623C214.322 91.8672 213.268 90.8129 213.268 89.5124V74.9681Z" fill="#5187DF"/>
<path d="M265.792 84.0072H252.718C251.59 84.0072 250.838 83.2153 250.838 82.0275C250.838 80.8395 251.59 80.0498 252.718 80.0498H265.792C266.919 80.0498 267.671 80.8395 267.671 82.0275C267.671 83.2153 266.919 84.0072 265.792 84.0072Z" fill="#1545BB"/>
<path d="M245.982 84.0072H222.212C221.084 84.0072 220.332 83.2153 220.332 82.0275C220.332 80.8395 221.084 80.0498 222.212 80.0498H245.982C247.109 80.0498 247.861 80.8395 247.861 82.0275C247.861 83.2153 247.109 84.0072 245.982 84.0072Z" fill="#1545BB"/>
<path d="M310.348 84.2021H286.577C285.45 84.2021 284.698 83.4167 284.698 82.2387C284.698 81.0605 285.45 80.2773 286.577 80.2773H310.348C311.475 80.2773 312.227 81.0605 312.227 82.2387C312.227 83.4167 311.475 84.2021 310.348 84.2021Z" fill="#5187DF"/>
<rect x="187" y="42" width="146" height="76.1398" rx="9" stroke="#7AA5E7" stroke-linecap="round" stroke-linejoin="bevel" stroke-dasharray="3 5"/>
<path style="mix-blend-mode:multiply" opacity="0.56" d="M408 145H215.5L191 117.5C191 117.5 193.5 118.793 197 118.793H324.527C329.497 118.793 333.509 114.764 333.509 109.793V48.3252L408 145Z" fill="url(#paint0_linear_966_36)"/>
<defs>
<linearGradient id="paint0_linear_966_36" x1="390" y1="170" x2="211" y2="48" gradientUnits="userSpaceOnUse">
<stop stop-color="#003BA1"/>
<stop offset="1" stop-color="#7AA5E7"/>
</linearGradient>
</defs>
</svg>

<svg xmlns="http://www.w3.org/2000/svg" width="575" height="145" fill="none" viewBox="0 0 575 145"><path fill="#286ad8" d="M433 145C433 64.98 368.094.11 288.028.11L288 0v145zM182.424 145C160.651 145 143 127.148 143 105.125V0h145v145z"/><path fill="#286ad8" d="M430 145V0h72.335C542.467 0 575 32.46 575 72.5S542.467 145 502.335 145zM105.125 145H0C0 64.919 64.919 0 145 0v105.125C145 127.147 127.147 145 105.125 145"/><path fill="#5187df" d="M213.268 74.968c0-1.3 1.054-2.355 2.355-2.355h60.441c1.3 0 2.354 1.055 2.354 2.355v14.544c0 1.3-1.054 2.355-2.354 2.355h-60.441a2.355 2.355 0 0 1-2.355-2.355z"/><path fill="#1545bb" d="M265.792 84.007h-13.074c-1.128 0-1.88-.792-1.88-1.98s.752-1.977 1.88-1.977h13.074c1.127 0 1.879.79 1.879 1.978s-.752 1.98-1.879 1.98M245.982 84.007h-23.77c-1.128 0-1.88-.792-1.88-1.98s.752-1.977 1.88-1.977h23.77c1.127 0 1.879.79 1.879 1.978s-.752 1.98-1.879 1.98"/><path fill="#5187df" d="M310.348 84.202h-23.771c-1.127 0-1.879-.785-1.879-1.963s.752-1.962 1.879-1.962h23.771c1.127 0 1.879.784 1.879 1.962s-.752 1.963-1.879 1.963"/><rect width="146" height="76.14" x="187" y="42" stroke="#7aa5e7" stroke-dasharray="3 5" stroke-linecap="round" stroke-linejoin="bevel" rx="9"/><path fill="url(#a)" d="M408 145H215.5L191 117.5s2.5 1.293 6 1.293h127.527c4.97 0 8.982-4.029 8.982-9V48.325z" opacity=".56" style="mix-blend-mode:multiply"/><defs><linearGradient id="a" x1="390" x2="211" y1="170" y2="48" gradientUnits="userSpaceOnUse"><stop stop-color="#003ba1"/><stop offset="1" stop-color="#7aa5e7"/></linearGradient></defs></svg>
